X: 1
T: Hughie Shortie's
M: 4/4
L: 1/8
R: reel
K: Gmaj
&quot;G&quot;G2BG &quot;D&quot;cAFA| &quot;G&quot;GABd g2fg| &quot;C&quot;ecAc &quot;G&quot;dBGB| &quot;Am&quot;cAAB &quot;D&quot;AFD2|
&quot;G&quot;DGBG &quot;D&quot;cAFA| &quot;G&quot;GABd g2fg| &quot;C&quot;ecAc &quot;G&quot;dBGB| &quot;D&quot;cAFA &quot;G&quot;G4 :|
&quot;G&quot;g2dg bgag| &quot;C&quot;ec c/c/c &quot;Am&quot;efge| &quot;G&quot;dB B/B/B &quot;Em&quot;dBGB| &quot;C&quot;cAAB &quot;D&quot;AFD2|
&quot;G&quot;g2dg bgag| &quot;C&quot;ec c/c/c efge| &quot;G&quot;dB B/B/B &quot;C&quot;dBGB| &quot;D&quot;cAGF &quot;G&quot;G4|
&quot;G&quot;g2dg bgag| &quot;C&quot;ec c/c/c &quot;Am&quot;efge| &quot;G&quot;dB B/B/B &quot;Em&quot;dBGB| &quot;C&quot;cAAB &quot;D&quot;AFD2|
&quot;C&quot;G,CEC &quot;G&quot;B,DdB| &quot;D&quot;cdef &quot;G&quot;g2fg| &quot;C&quot;ecAc &quot;G&quot;dBGB| &quot;D&quot;cAFA &quot;G&quot;G4|]
